figures-source/3.9.svg

<?xml version="1.0" encoding="utf-8"?>
<svg xmlns="http://www.w3.org/2000/svg" xmlns:xlink="http://www.w3.org/1999/xlink">
	<defs>
		<marker id="Arrow1Lend" orient="auto" refX="0.0" refY="0.0" style="overflow:visible;">
			
              
			<path d="M -10,0.0 L -10.0,-2.0 L 0.0,0.0 L -10.0,2.0 z " id="path3666" style="fill-rule:evenodd;stroke:#000000;stroke-width:1.0px;marker-start:none;"/>
			
            
		</marker>
	</defs>
	<g style="stroke:#000000;fill:#fff">
		<rect height="55.0" id="303" rx="5.0" ry="5.0" style="stroke:#504c4d;stroke-width:3.000000px;fill:#d2d7d5" width="112.38" x="558.0" y="125.5"/>
		<text id="303_text" style="fill:#000000;stroke:#000000;stroke-width:0px;font-family: Geneva;font-size:14px" x="558.0" y="125.5">
			<tspan fill="#000000" font-family="Geneva;" font-size="14.0px" id="303_line1" stroke="#000000" text-align="center" text-anchor="middle" x="614.19" y="160.0">
				master
			</tspan>
		</text>
		<path d="M 614.19,182.0 L 614.19,228.75" id="305" style="marker-start:none;stroke:#000000;stroke-width:3.000000px;marker-end:url(#Arrow1Lend);fill:none"/>
		<rect height="55.0" id="306" rx="5.0" ry="5.0" style="stroke:#504c4d;stroke-width:3.000000px;fill:#d2d7d5" width="112.38" x="558.0" y="454.5"/>
		<text id="306_text" style="fill:#000000;stroke:#000000;stroke-width:0px;font-family: Geneva;font-size:14px" x="558.0" y="454.5">
			<tspan fill="#000000" font-family="Geneva;" font-size="14.0px" id="306_line1" stroke="#000000" text-align="center" text-anchor="middle" x="614.19" y="489.0">
				testing
			</tspan>
		</text>
		<path d="M 614.19,453.0 L 614.19,399.25" id="307" style="marker-start:none;stroke:#000000;stroke-width:3.000000px;marker-end:url(#Arrow1Lend);fill:none"/>
		<rect height="55.0" id="308" rx="5.0" ry="5.0" style="stroke:#272525;stroke-width:3.000000px;fill:#484a49" width="112.38" x="558.0" y="22.0"/>
		<text id="308_text" style="fill:#ffffff;stroke:#ffffff;stroke-width:0px;font-family: Geneva;font-size:14px" x="558.0" y="22.0">
			<tspan fill="#ffffff" font-family="Geneva;" font-size="14.0px" id="308_line1" stroke="#ffffff" text-align="center" text-anchor="middle" x="614.19" y="56.5">
				HEAD
			</tspan>
		</text>
		<path d="M 614.19,78.5 L 614.19,124.0" id="309" style="marker-start:none;stroke:#000000;stroke-width:3.000000px;marker-end:url(#Arrow1Lend);fill:none"/>
		<rect height="55.0" id="310" rx="5.0" ry="5.0" style="stroke:#28502c;stroke-width:3.000000px;fill:#baffb3" width="112.38" x="558.0" y="342.75"/>
		<text id="310_text" style="fill:#000000;stroke:#000000;stroke-width:0px;font-family: Geneva;font-size:14px" x="558.0" y="342.75">
			<tspan fill="#000000" font-family="Courier;" font-size="18.0px" id="310_line1" stroke="#000000" text-align="center" text-anchor="middle" x="614.19" y="379.25">
				c2b9e
			</tspan>
		</text>
		<rect height="55.0" id="314" rx="5.0" ry="5.0" style="stroke:#28502c;stroke-width:3.000000px;fill:#baffb3" width="112.38" x="558.0" y="230.25"/>
		<text id="314_text" style="fill:#000000;stroke:#000000;stroke-width:0px;font-family: Geneva;font-size:14px" x="558.0" y="230.25">
			<tspan fill="#000000" font-family="Courier;" font-size="18.0px" id="314_line1" stroke="#000000" text-align="center" text-anchor="middle" x="614.19" y="266.75">
				87ab2
			</tspan>
		</text>
		<path d="M 556.572,276.284 L 496.935,295.466" id="315" style="marker-start:none;stroke:#000000;stroke-width:3.000000px;marker-end:url(#Arrow1Lend);fill:none"/>
		<rect height="55.0" id="316" rx="5.0" ry="5.0" style="stroke:#28502c;stroke-width:3.000000px;fill:#baffb3" width="112.38" x="31.0" y="286.5"/>
		<text id="316_text" style="fill:#000000;stroke:#000000;stroke-width:0px;font-family: Geneva;font-size:14px" x="31.0" y="286.5">
			<tspan fill="#000000" font-family="Courier;" font-size="18.0px" id="316_line1" stroke="#000000" text-align="center" text-anchor="middle" x="87.19" y="323.0">
				98ca9
			</tspan>
		</text>
		<rect height="55.0" id="317" rx="5.0" ry="5.0" style="stroke:#28502c;stroke-width:3.000000px;fill:#baffb3" width="112.38" x="204.506" y="286.5"/>
		<text id="317_text" style="fill:#000000;stroke:#000000;stroke-width:0px;font-family: Geneva;font-size:14px" x="204.506" y="286.5">
			<tspan fill="#000000" font-family="Courier;" font-size="18.0px" id="317_line1" stroke="#000000" text-align="center" text-anchor="middle" x="260.696" y="323.0">
				34ac2
			</tspan>
		</text>
		<rect height="55.0" id="318" rx="5.0" ry="5.0" style="stroke:#28502c;stroke-width:3.000000px;fill:#baffb3" width="112.38" x="383.127" y="286.5"/>
		<text id="318_text" style="fill:#000000;stroke:#000000;stroke-width:0px;font-family: Geneva;font-size:14px" x="383.127" y="286.5">
			<tspan fill="#000000" font-family="Courier;" font-size="18.0px" id="318_line1" stroke="#000000" text-align="center" text-anchor="middle" x="439.317" y="323.0">
				f30ab
			</tspan>
		</text>
		<path d="M 381.627,314.0 L 318.386,314.0" id="319" style="marker-start:none;stroke:#000000;stroke-width:3.000000px;marker-end:url(#Arrow1Lend);fill:none"/>
		<path d="M 203.006,314.0 L 144.88,314.0" id="320" style="marker-start:none;stroke:#000000;stroke-width:3.000000px;marker-end:url(#Arrow1Lend);fill:none"/>
		<path d="M 556.572,351.716 L 496.935,332.534" id="321" style="marker-start:none;stroke:#000000;stroke-width:3.000000px;marker-end:url(#Arrow1Lend);fill:none"/>
	</g>
</svg>

<svg xmlns:rdf="http://www.w3.org/1999/02/22-rdf-syntax-ns#" xmlns="http://www.w3.org/2000/svg" height="490.5" width="642.38" version="1.1" xmlns:cc="http://creativecommons.org/ns#" xmlns:dc="http://purl.org/dc/elements/1.1/">
 <metadata>
  <rdf:RDF>
   <cc:Work rdf:about="">
    <dc:format>image/svg+xml</dc:format>
    <dc:type rdf:resource="http://purl.org/dc/dcmitype/StillImage"/>
    <dc:title/>
   </cc:Work>
  </rdf:RDF>
 </metadata>
 <defs>
  <marker id="Arrow1Lend" refY="0" refX="0" orient="auto">
   <path style="marker-start:none;" d="m-10,0,0-2,10,2-10,2z" fill-rule="evenodd" stroke="#000" stroke-width="1px"/>
  </marker>
 </defs>
 <g transform="translate(-29.5,-20.5)">
  <rect rx="5" ry="5" height="55" width="112.38" stroke="#504c4d" y="125.5" x="558" stroke-width="3px" fill="#d2d7d5"/>
  <text font-family="Geneva" font-size="14px" stroke="#000000" y="125.5" x="558" stroke-width="0px" fill="#000000">
   <tspan font-size="14px" fill="#000000" style="text-anchor:middle;text-align:center;" stroke="#000000" y="160" x="614.19" font-family="&apos;Geneva" text-align="center">master</tspan>
  </text>
  <path style="marker-start:none;marker-end:url(#Arrow1Lend);" d="m614.19,182,0,46.75" stroke="#000" stroke-width="3px" fill="none"/>
  <rect rx="5" ry="5" height="55" width="112.38" stroke="#504c4d" y="454.5" x="558" stroke-width="3px" fill="#d2d7d5"/>
  <text font-family="Geneva" font-size="14px" stroke="#000000" y="454.5" x="558" stroke-width="0px" fill="#000000">
   <tspan font-size="14px" fill="#000000" style="text-anchor:middle;text-align:center;" stroke="#000000" y="489" x="614.19" font-family="&apos;Geneva" text-align="center">testing</tspan>
  </text>
  <path style="marker-start:none;marker-end:url(#Arrow1Lend);" d="m614.19,453,0-53.75" stroke="#000" stroke-width="3px" fill="none"/>
  <rect rx="5" ry="5" height="55" width="112.38" stroke="#272525" y="22" x="558" stroke-width="3px" fill="#484a49"/>
  <text font-family="Geneva" font-size="14px" stroke="#ffffff" y="22" x="558" stroke-width="0px" fill="#ffffff">
   <tspan font-size="14px" fill="#ffffff" style="text-anchor:middle;text-align:center;" stroke="#ffffff" y="56.5" x="614.19" font-family="&apos;Geneva" text-align="center">HEAD</tspan>
  </text>
  <path style="marker-start:none;marker-end:url(#Arrow1Lend);" d="m614.19,78.5,0,45.5" stroke="#000" stroke-width="3px" fill="none"/>
  <rect rx="5" ry="5" height="55" width="112.38" stroke="#28502c" y="342.75" x="558" stroke-width="3px" fill="#baffb3"/>
  <text font-family="Geneva" font-size="14px" stroke="#000000" y="342.75" x="558" stroke-width="0px" fill="#000000">
   <tspan font-size="18px" fill="#000000" style="text-anchor:middle;text-align:center;" stroke="#000000" y="379.25" x="614.19" font-family="&apos;Courier" text-align="center">c2b9e</tspan>
  </text>
  <rect rx="5" ry="5" height="55" width="112.38" stroke="#28502c" y="230.25" x="558" stroke-width="3px" fill="#baffb3"/>
  <text font-family="Geneva" font-size="14px" stroke="#000000" y="230.25" x="558" stroke-width="0px" fill="#000000">
   <tspan font-size="18px" fill="#000000" style="text-anchor:middle;text-align:center;" stroke="#000000" y="266.75" x="614.19" font-family="&apos;Courier" text-align="center">87ab2</tspan>
  </text>
  <path style="marker-start:none;marker-end:url(#Arrow1Lend);" d="m556.57,276.28-59.637,19.182" stroke="#000" stroke-width="3px" fill="none"/>
  <rect rx="5" ry="5" height="55" width="112.38" stroke="#28502c" y="286.5" x="31" stroke-width="3px" fill="#baffb3"/>
  <text font-family="Geneva" font-size="14px" stroke="#000000" y="286.5" x="31" stroke-width="0px" fill="#000000">
   <tspan font-size="18px" fill="#000000" style="text-anchor:middle;text-align:center;" stroke="#000000" y="323" x="87.190002" font-family="&apos;Courier" text-align="center">98ca9</tspan>
  </text>
  <rect rx="5" ry="5" height="55" width="112.38" stroke="#28502c" y="286.5" x="204.51" stroke-width="3px" fill="#baffb3"/>
  <text font-family="Geneva" font-size="14px" stroke="#000000" y="286.5" x="204.506" stroke-width="0px" fill="#000000">
   <tspan font-size="18px" fill="#000000" style="text-anchor:middle;text-align:center;" stroke="#000000" y="323" x="260.69601" font-family="&apos;Courier" text-align="center">34ac2</tspan>
  </text>
  <rect rx="5" ry="5" height="55" width="112.38" stroke="#28502c" y="286.5" x="383.13" stroke-width="3px" fill="#baffb3"/>
  <text font-family="Geneva" font-size="14px" stroke="#000000" y="286.5" x="383.12701" stroke-width="0px" fill="#000000">
   <tspan font-size="18px" fill="#000000" style="text-anchor:middle;text-align:center;" stroke="#000000" y="323" x="439.31699" font-family="&apos;Courier" text-align="center">f30ab</tspan>
  </text>
  <path style="marker-start:none;marker-end:url(#Arrow1Lend);" d="m381.63,314-63.241,0" stroke="#000" stroke-width="3px" fill="none"/>
  <path style="marker-start:none;marker-end:url(#Arrow1Lend);" d="m203.01,314-58.126,0" stroke="#000" stroke-width="3px" fill="none"/>
  <path style="marker-start:none;marker-end:url(#Arrow1Lend);" d="M556.57,351.72,496.94,332.53" stroke="#000" stroke-width="3px" fill="none"/>
 </g>
</svg>
